img/icons/Copy.svg

<svg width="25" height="24" viewBox="0 0 25 24" fill="none" xmlns="http://www.w3.org/2000/svg">
<path d="M15.5 15H18.3C19.4201 15 19.98 15 20.4078 14.782C20.7841 14.5902 21.0905 14.2844 21.2822 13.908C21.5002 13.4802 21.5002 12.9202 21.5002 11.8V6.20002C21.5002 5.07992 21.5002 4.51986 21.2822 4.09204C21.0905 3.71572 20.7841 3.40973 20.4078 3.21799C19.98 3 19.4203 3 18.3002 3H12.7002C11.5801 3 11.0196 3 10.5918 3.21799C10.2155 3.40973 9.90973 3.71572 9.71799 4.09204C9.5 4.51986 9.5 5.07997 9.5 6.20007V9.00007M3.5 17.8001V12.2001C3.5 11.08 3.5 10.5199 3.71799 10.092C3.90973 9.71572 4.21547 9.40973 4.5918 9.21799C5.01962 9 5.58009 9 6.7002 9H12.3002C13.4203 9 13.98 9 14.4078 9.21799C14.7841 9.40973 15.0905 9.71572 15.2822 10.092C15.5002 10.5199 15.5002 11.0799 15.5002 12.2V17.8C15.5002 18.9202 15.5002 19.4802 15.2822 19.908C15.0905 20.2844 14.7841 20.5902 14.4078 20.782C13.98 21 13.4203 21 12.3002 21H6.7002C5.58009 21 5.01962 21 4.5918 20.782C4.21547 20.5902 3.90973 20.2844 3.71799 19.908C3.5 19.4802 3.5 18.9202 3.5 17.8001Z" stroke="white" stroke-width="1.5" stroke-linecap="round" stroke-linejoin="round"/>
</svg>

<svg width="25" height="24" fill="none" xmlns="http://www.w3.org/2000/svg"><path d="M15.5 15h2.8c1.12 0 1.68 0 2.108-.218a2 2 0 0 0 .874-.874c.218-.428.218-.988.218-2.108V6.2c0-1.12 0-1.68-.218-2.108a2 2 0 0 0-.874-.874C19.98 3 19.42 3 18.3 3h-5.6c-1.12 0-1.68 0-2.108.218a2 2 0 0 0-.874.874C9.5 4.52 9.5 5.08 9.5 6.2V9m-6 8.8v-5.6c0-1.12 0-1.68.218-2.108a2 2 0 0 1 .874-.874C5.02 9 5.58 9 6.7 9h5.6c1.12 0 1.68 0 2.108.218a2 2 0 0 1 .874.874c.218.428.218.988.218 2.108v5.6c0 1.12 0 1.68-.218 2.108a2 2 0 0 1-.874.874C13.98 21 13.42 21 12.3 21H6.7c-1.12 0-1.68 0-2.108-.218a2 2 0 0 1-.874-.874C3.5 19.48 3.5 18.92 3.5 17.8Z" stroke="#fff" stroke-width="1.5" stroke-linecap="round" stroke-linejoin="round"/></svg>
